src/assets/images/subscribe-button.svg

<svg height="40" viewBox="0 0 40 40" width="40" xmlns="http://www.w3.org/2000/svg"><g fill="none" fill-rule="evenodd"><path d="m39.9319173 20.2466992c.2109093 3.5584803-.0476247 6.4816131-1.0654319 9.2886214-1.1253029 3.136695-3.162278 5.5219179-6.0115939 7.2637847-2.3512979 1.4322016-4.8917338 2.3451801-7.6131435 2.8337036-2.7690343.5125493-5.5203794.5205579-8.2798888-.1801931-2.2887055-.599309-4.3501733-1.6484333-6.2497173-3.0365877-2.91329249-2.1035375-5.45563934-4.6609917-7.52605835-7.5707804-1.34709778-1.9020384-2.41797247-3.9228709-2.91599044-6.1892998-.48985374-2.1716608-.29255154-4.2912657.4231792-6.3721625.70756651-2.0582059 1.80293389-3.9121928 3.09696418-5.6487205 2.00023609-2.64416717 4.29982724-5.02138153 6.97905501-7.01418392 1.9117903-1.43220158 3.9718974-2.58009847 6.3163918-3.21678081 2.2097847-.58996562 4.4032408-.5165536 6.6048612.1067811 2.3839549.67005144 4.5120972 1.8446436 6.500087 3.2875233 2.2859841 1.6711243 4.2957451 3.61854472 5.9503622 5.92101231 1.6226543 2.26847142 2.7484944 4.84216882 3.3065127 7.55876752.2231556 1.1972832.3728331 2.3692058.4844109 2.9685148z" fill="#fc6e69" transform="matrix(1 0 0 -1 0 40)"/><path d="m20.295 12.705c.3893607-.3893607 1.0206393-.3893607 1.41 0l6.5878932 6.5878932c.3905243.3905243.3905243 1.0236893 0 1.4142136l-6.5878932 6.5878932c-.3893607.3893607-1.0206393.3893607-1.41 0-.3894628-.3894628-.3897454-1.0208196-.0006314-1.4106309l4.8756314-4.8843691h-12.17c-.5522847 0-1-.4477153-1-1s.4477153-1 1-1h12.17l-4.8756314-4.8843691c-.389114-.3898113-.3888314-1.0211681.0006314-1.4106309z" fill="#fff" fill-rule="nonzero"/></g></svg>

<svg xmlns="http://www.w3.org/2000/svg" width="40" height="40" viewBox="0 0 40 40">
  <g fill="none" fill-rule="evenodd">
    <path fill="#FC6E69" d="M39.9319173,20.2466992 C40.1428266,23.8051795 39.8842926,26.7283123 38.8664854,29.5353206 C37.7411825,32.6720156 35.7042074,35.0572385 32.8548915,36.7991053 C30.5035936,38.2313069 27.9631577,39.1442854 25.241748,39.6328089 C22.4727137,40.1453582 19.7213686,40.1533668 16.9618592,39.4526158 C14.6731537,38.8533068 12.6116859,37.8041825 10.7121419,36.4160281 C7.79884941,34.3124906 5.25650256,31.7550364 3.18608355,28.8452477 C1.83898577,26.9432093 0.768111076,24.9223768 0.270093111,22.6559479 C-0.219760626,20.4842871 -0.0224584263,18.3646822 0.693272311,16.2837854 C1.40083882,14.2255795 2.4962062,12.3715926 3.79023649,10.6350649 C5.79047258,7.99089773 8.09006373,5.61368337 10.7692915,3.62088098 C12.6810818,2.1886794 14.7411889,1.04078251 17.0856833,0.404100165 C19.295468,-0.185865445 21.4889241,-0.112453434 23.6905445,0.510881271 C26.0744994,1.18093271 28.2026417,2.35552487 30.1906315,3.79840457 C32.4766156,5.46952887 34.4863766,7.41694929 36.1409937,9.71941688 C37.763648,11.9878883 38.8894881,14.5615857 39.4475064,17.2781844 C39.670662,18.4754676 39.8203395,19.6473902 39.9319173,20.2466992 Z" transform="matrix(1 0 0 -1 0 40)"/>
    <path fill="#FFF" fill-rule="nonzero" d="M20.295,12.705 C20.6843607,12.3156393 21.3156393,12.3156393 21.705,12.705 L28.2928932,19.2928932 C28.6834175,19.6834175 28.6834175,20.3165825 28.2928932,20.7071068 L21.705,27.295 C21.3156393,27.6843607 20.6843607,27.6843607 20.295,27.295 C19.9055372,26.9055372 19.9052546,26.2741804 20.2943686,25.8843691 L25.17,21 L13,21 C12.4477153,21 12,20.5522847 12,20 C12,19.4477153 12.4477153,19 13,19 L25.17,19 L20.2943686,14.1156309 C19.9052546,13.7258196 19.9055372,13.0944628 20.295,12.705 Z"/>
  </g>
</svg>
